X:13008
T:Perfidious Amerikay
R:odd
O:New Zealand
M:8/8
C:Mark Fitzsimons
K:Dmin
A,DE F2 EDB,|B,DE A,2G,A,B,|CFE D2 CDE|DCB, A,2 G,A,B,|
M:9/8 
CEF G2G2AG|BBA G2 GF GF|\
M:8/8
EDE F2 GFE|GFE D2 z2z:|
M:7/8
AGF E2 E2|\
M:10/8
DEF GAB A2A2|\
M:7/8
BAG F2F2|\
M:10/8
EDEF2Gc2B2|
M:9/8
AGF E2 EDED|BBA G2 GFGF|\
M:8/8
EDE F2 GFE|GFE D2 z2z:|
dcB A2 GAB|\
M:7/8
dcB A2A2|\
M:8/8
dcB A2 GAB|\
M:7/8
dcB A2A2|
M:8/8
|1 AGF E2 DEF|\
M:7/8
BAG E2E2|G2GF GFE|\
M:8/8
GAE D2z2z:|
M:8/8
|2AGF E2 DEF| BAG E2 DEF|EDE F2 GFE|GFED2z2z:|
W:
W:
W:Copyright Mark Fitzsimons March 2000
W:markf@ihug.co.nz
